X:1
T:Weeping Willow
T:WEEPING  WILLOW.
T:SCOTT JOPLIN.
T:A  Rag  Time  Two  Step.
T:Public Domain
T:Public Domain
T:Public Domain
T:Public Domain
C:Scott Joplin
Z:Public Domain
%%score { ( 1 3 ) | ( 2 4 ) }
L:1/8
Q:1/4=66
M:2/4
K:G
V:1 treble nm="Piano" snm="Pno."
V:3 treble 
V:2 bass 
V:4 bass 
V:1
"^Not  fast."!f! d/^c/d/e/ fg | dd- d/e/=c/A/ | G/F/G/A/ Bc | DD- D/G/A/B/ |:!f! [GBd]2 [GBg]2 | %5
 [GB]/^A/[GB]/[=FGBd]/- [FGBd]/de/ | d/cG/- [EG]/AG/ | [DB]/G/E/D/- D/G/A/B/ | [GBd]2 [GBg]2 | %9
 [df]/^e/[df]/[dfa]/- [dfa]/d/f/a/ | b/g/e/^c/- c/A/B/c/ | [Fd]2- [Fd]G/B/ | [GBd]2 [GBg]2 | %13
 [GB]/^A/[GB]/[=FGBd]/- [FGBd]/de/ | d/cG/- [EG]/AG/ | [DB]/G/E/D/- D/B/^A/B/ | [B^d]2 [Bdf]>a | %17
 a/g/f/g/- g/g/f/e/ | [Be]/d/^c/d/- d/=c/A/F/ |1 G2- G/G/A/B/ :|2 G[dd']/[dd']/ [dd'][d^eb] |: %21
!f! [dfc']2- [dfc']/[^GB]/[Ac] | [^E^G]/[FA][^GB]/ [Ac][c=e] | %23
 [^A^c]/[Bd][dgb]/- [dgb]/[^cg^a]/[dgb]/[Bdg]/- | [Bdg]/^f/[Bdg] f/[Bdg]G/- | %25
 G/G/c/e/ [Gcg][Aca]/[GBg]/- | [GBg]/B/d/e/ e/d/e/d/ | [EGc]/G/c/e/ [Gcg][Aca]/[Bdgb]/- | %28
 [Bdgb]/g/b [dgbd'][d^eb] | [dfc']2- [dfc']/[^GB]/[Ac] | [^E^G]/[FA][^GB]/ [Ac][c=e] | %31
 [^A^c]/[Bd][dgb]/- [dgb]/[^cg^a]/[dgb]/[Bdg]/- | [Bdg]/^f/[Bdg] f/[Bdg]G/- | %33
 G/G/c/e/ [Gcg][Aca]/[GBg]/- | g/e/d/B/ E/B/G/E/ | [^CG]2 [=CDFA]/[CDFA][B,DG]/- |1 %36
 [B,DG][dd']/[dd']/ [dd'][d^eb] :|2 [B,DG]2- [B,DG]/G/A/B/ ||!f! [GBd]2 [GBg]2 | %39
 [GB]/^A/[GB]/[=FGBd]/- [FGBd]/de/ | d/cG/- [EG]/AG/ | [DB]/G/E/D/- D/G/A/B/ | [GBd]2 [GBg]2 | %43
 [df]/^e/[df]/[dfa]/- [dfa]/d/f/a/ | b/g/e/^c/- c/A/B/c/ | [Fd]2- [Fd]G/B/ | [GBd]2 [GBg]2 | %47
 [GB]/^A/[GB]/[=FGBd]/- [FGBd]/de/ | d/cG/- [EG]/AG/ | [DB]/G/E/D/- D/B/^A/B/ | [B^d]2 [Bdf]>a | %51
 a/g/f/g/- g/g/f/e/ | [Be]/d/^c/d/- d/=c/A/F/ | G z [GBdg] z |:[K:C]!mf! E/G/c/d/ e/ge/- | %55
 [Ge]/^d/[^Ge] [Gf][Ge]/[Ac]/- | [Ac]/B/[Ac] [E_Bc]/[EBc][FAc]/- | [FAc]2- [FAc]/A/c/f/ | %58
 [cfa][cfa] [cfa][c^d_a] | [ceg]>e c/d/e/c/ | (B/b/g/e/-) e/(g/^f/^d/) | e z [Gg]2 | %62
 E/G/c/d/ e/ge/- | [Ge]/^d/[^Ge] [Gf][Ge]/[Ac]/- | [Ac]/B/[Ac] [E_Bc]/[EBc][FAc]/- | %65
 [FAc]2- [FAc]/A/c/f/ | [cfa][cfa] [cfa][c^d_a] | [ceg]>e c/d/e | [^Fc]2 [=FBd]/[FBd][EGc]/- |1 %69
 [EGc]!^!G !^!^F!^!=F :|2 [EGc](G/A/)!<(! (B/c/d/e/)!<)! |:!f! [Bd]2 [Bg]2- | %72
 [Bg]/d/[Bb]/d/ f/a/g/f/ | e/^d/e/g/- g2 | c/^d/^f/a/ g/e/g/c'/ | %75
 [dfc'][dfb]/[dfb]/- [dfb]/[df^a]/[dfb] | [df]2- [df]/d/f/b/ | %77
 [ceb][cea]/[cea]/- [cea]/[ce^g]/[cea] | [ce]2- [ce]/=G/c/e/ | [Bd]2 [Bg]2- | %80
 [Bg]/d/[Bb]/d/ f/a/g/f/ | e/^d/e/[_Bg]/- g/e/g | [Af]2- [Af]/A/c/f/ | [cfa][cfa] [cfa][c^d_a] | %84
 [ceg]>e c/d/e | [^Fc]2 [=FBd]/[FBd][EGc]/- |1 [EGc](G/A/) (B/c/d/e/) :|2 [EGc]2 !^![cegc'] z |] %88
V:2
[I:staff -1] D/^C/D/E/ FG | DD- D/E/=C/A,/ |[I:staff +1] G,/F,/G,/A,/ B,C | D,D,- D,/ z/ z |: %4
 G,,[D,G,B,] D,,[D,G,B,] | G,,[D,G,B,] B,,[D,G,B,] | C,2 C,2 | G,,[D,G,B,] [D,G,B,] z | %8
 G,,[D,G,B,] E,,[E,G,B,] | A,,[F,A,D] F,,[F,A,D] | E,,[G,A,^C] A,,[G,A,C] | %11
 [D,A,D][A,,A,][D,,D,] z | G,,[D,G,B,] D,,[D,G,B,] | G,,[D,G,B,] B,,[D,G,B,] | %14
 C,[E,G,C] C,[_E,G,C] | G,,[D,G,B,][D,G,B,] z | F,[A,B,] B,,[A,B,] | E,[G,B,] ^C,[E,G,^A,] | %18
 D,[G,B,] D,[F,A,C] |1 B,2- B,/ z/ z :|2 [G,B,] z [B,,B,][^G,,^G,] |: %21
 [A,,A,][D,F,C] [F,,F,][D,F,C] | [D,,D,][D,F,C] [F,,F,][D,F,C] | [G,,G,][D,G,B,] [D,,D,][D,G,B,] | %24
 [G,,G,][=F,,=F,] [E,,E,][D,,D,] | [C,,C,][G,CE] [E,,E,][_E,,_E,] | %26
 [D,,D,][G,B,D] [G,,G,][B,,,B,,] | [C,,C,][G,CE] [E,,E,][_E,,_E,] | %28
 [D,,D,][G,B,D] [G,,G,][^G,,^G,] | [A,,A,][D,F,C] [F,,F,][D,F,C] | [D,,D,][D,F,C] [F,,F,][D,F,C] | %31
 [G,,G,][D,G,B,] [D,,D,][D,G,B,] | [G,,G,][=F,,=F,] [E,,E,][D,,D,] | %33
 [C,,C,][G,CE] [E,,E,][_E,,_E,] | [D,,D,][G,,G,] [B,,E,G,B,]2 | [A,,A,][E,,E,] [D,,D,]2 |1 %36
 [G,,G,] z [B,,B,][^G,,^G,] :|2 [G,,G,]!^!D, !^!E,!^!D, || G,,[D,G,B,] D,,[D,G,B,] | %39
 G,,[D,G,B,] B,,[D,G,B,] | C,[E,G,C] C,[_E,G,C] | G,,[D,G,B,][D,G,B,] z | G,,[D,G,B,] E,,[E,G,B,] | %43
 A,,[F,A,D] F,,[F,A,D] | E,,[G,A,^C] A,,[G,A,C] | [D,A,D][A,,A,][D,,D,] z | %46
 G,,[D,G,B,] D,,[D,G,B,] | G,,[D,G,B,] B,,[D,G,B,] | C,[E,G,C] C,[_E,G,C] | G,,[D,G,B,][D,G,B,] z | %50
 F,[A,B,] B,,[A,B,] | E,[G,B,] ^C,[E,G,^A,] | D,[G,B,] D,[F,A,C] | [G,B,] z [G,,G,] z |: %54
[K:C] C,[E,G,C] G,,[E,G,C] | B,,[E,^G,D] E,,[E,G,D] | A,,[E,A,C] [G,,G,][C,,C,] | %57
 [F,,F,][A,C] C,[A,C] | [F,,F,][A,CF] [F,,F,][^F,,^F,] | [G,,G,][G,CE] [A,,A,][A,CE] | %60
 B,,[G,B,E] B,,[A,B,^D] | [E,G,B,E] z [F,G,B,]2 | C,[E,G,C] G,,[E,G,C] | B,,[E,^G,D] E,,[E,G,D] | %64
 A,,[E,A,C] [G,,G,][C,,C,] | [F,,F,][A,C] C,[A,C] | [F,,F,][A,CF] [F,,F,][^F,,^F,] | %67
 [G,,G,][G,CE] [A,,A,][A,CE] | [D,D][A,,A,] [G,,G,]2 |1 [C,C]!^!G,, !^!A,,!^!B,, :|2 [C,C] z z2 |: %71
 [G,G][F,F][D,D][B,,B,] | [G,,G,][^G,,^G,] [A,,A,][B,,B,] | [C,C][G,CE] E,[G,CE] | %74
 [^F,A,C^D]2 [G,CE] z | [D,D][G,B,F] [G,,G,][G,B,F] | %76
 ([B,,B,]/[_B,,_B,]/[A,,A,]/[_A,,_A,]/ [G,,G,])[G,=B,F] | [C,C][G,CE] [G,,G,][=G,CE] | %78
 ([C,C]/[B,,B,]/[A,,A,]/[_A,,_A,]/ [G,,G,]) z | [G,G][F,F][D,D][B,,B,] | %80
 [G,,G,][^G,,^G,] [A,,A,][B,,B,] | [C,C][G,CE] E,[_B,CE] | F,[A,CF] C,[A,CF] | %83
 [F,,F,][A,CF] [F,,F,][^F,,^F,] | [G,,G,][G,CE] [A,,A,][A,CE] | [D,D][A,,A,] [G,,G,]2 |1 %86
 [C,C] z z2 :|2 [C,C][G,,G,] !^![C,,C,] z |] %88
V:3
 x4 | x4 | x4 | x4 |: x4 | x2 x/ [=FGB]3/2 | [EG]>E- x/ _E3/2 | x4 | x4 | x4 | ^c3 G | x4 | x4 | %13
 x2 x/ [=FGB]3/2 | [EG]>E- x/ _E3/2 | x4 | x4 | [Be]>^A- A2 | x4 |1 x4 :|2 x4 |: x4 | x4 | x4 | %24
 x4 | x4 | x2 [=FB][FG] | x4 | x4 | x4 | x4 | x4 | x4 | x4 | [GB]2 D2 | x4 |1 x2 x x- :|2 x4 || %38
 x4 | x2 x/ [=FGB]3/2 | [EG]>E- x/ _E3/2 | x4 | x4 | x4 | ^c3 G | x4 | x4 | x2 x/ [=FGB]3/2 | %48
 [EG]>E- x/ _E3/2 | x4 | x4 | [Be]>^A- A2 | x4 | x4 |:[K:C] E2- E>^G- | x4 | x4 | x4 | x4 | x4 | %60
 x4 | x4 | E2- E>^G- | x4 | x4 | x4 | x4 | x4 | x4 |1 x2 x x- :|2 x4 |: x4 | x4 | x4 | x4 | x4 | %76
 x4 | x4 | x4 | x4 | x4 | x2 B2 | x4 | x4 | x4 | x4 |1 x2 x x/ x/- :|2 x4 |] %88
V:4
 x4 | x4 | x4 | x4 |: x4 | x4 | C,[E,G,C] C,[_E,G,C] | x4 | x4 | x4 | x4 | x4 | x4 | x4 | x4 | x4 | %16
 x4 | x4 | x4 |1 G,D, E,D, :|2 x4 |: x4 | x4 | x4 | x4 | x4 | x4 | x4 | x4 | x4 | x4 | x4 | x4 | %33
 x4 | x4 | x4 |1 x4 :|2 x4 || x4 | x4 | x4 | x4 | x4 | x4 | x4 | x4 | x4 | x4 | x4 | x4 | x4 | x4 | %52
 x4 | x4 |:[K:C] x4 | x4 | x4 | x4 | x4 | x4 | x4 | x x D,G,, | x4 | x4 | x4 | x4 | x4 | x4 | x4 |1 %69
 x4 :|2 x4 |: x4 | x4 | x4 | x4 | x4 | x4 | x4 | x4 | x4 | x4 | x4 | x4 | x4 | x4 | x4 |1 x4 :|2 %87
 x4 |] %88

